X:497
T:Col.Howard’s March. RH.497
R:march
S:Rev.R.Harrison’s MS,c1815,Cumbria
O:England
A:Temple Sowerby,Cumbria
Z:vmp.Simon Wilson. Review PJH, 2008.
M:C
L:1/16
Q:2/4=65
K:D
A2Bc|d8 f8|a4agfe d4A4|B6cd e2d2c2B2|A4A3G G4F4|!
F4A3A E4A3A|F4A3A E4A3A|d6ef g4f4|e4e3e e4A2Bc|!
d8 f8|a4agfe d4A4|B6cd e2d2c2B2|A4A3G G4F4|!
a4f2d2 e3cA4|a4f2d2 e3cA4|a4g4 f4e4|d2ef e2d2 c2A2 B2c2|!
d8 e8|f8 g8|a4agfe d4c4|d4d3d d4:|!
|:z4|c2cc c2c2 d2dd d2d2|e4e3e e4f4|abag fgfe d4c4|B4B3B B4c2d2|!
A4F3G A2d2f2d2|A4FGFG A2d2f2d2|a4f2d2 a4f2d2|A4A3A A4z4|!
d6f2 d2f2d2f2|d4d3d d4z4|a4f2d2 a4f2d2|A4A3A A4z4|!
d8 e8|f8 g8|a4agfe d4c4|d4d3d d4:|

